X: 35
T: Dancing Song (g)
C: Teton Sioux band 1911-1914
N: Derived from sioux035.krn
O: South Dakota, U.S.A.
N: Teton Sioux Music by Frances Densmore, 1918
Z: transcribed to **kern format by Craig Sapp
L: 1/16
M: 2/4
Q: 1/4=58
K: B clef=bass
%%linebreak <none>
F4F E3 [I:setbarnb 2]| 
G2< F2 D B,3 ||  
[M:3/4]G,2< F,2F,4F,3 B, ||  
[M:2/4]B,2< G,2 D B,3 | 
G, F, F,2F,4 | 
D2< B,2 G, F, F,2 | 
G, F, D, C,B,,4 | 
F,4B,2 G, F, | 
G,2 G, F,D,4 | 
F,2 D,2 F,2 G, F, | 
D,2 B,,2B,,4 | 
D,2 B,, B,, D,2 B,, B,, | 
B,,4B, B,3 | 
B,2< G,2 D B,3 | 
G, F, F,2F,4 | 
D2< B,2 G, F, G,2 | 
G, F, D, C,B,,4 | 
F,4B,2 G, F, | 
G,2 G, F,D,4 | 
F,2 D,2 F,2 G, F, | 
D,2 B,,2B,,4 | 
B,,8 |]  



